X: 452
T: Molly My Dear   #2
N: Irish title: maire a run
R: air, waltz
%S: s:2 b:10(5+5)
B: O'Neill's 1850 #452
Z: Transcribed by henrik.norbeck@mailbox.swipnet.se
N: Note: 5-bar phrases
N: Compacted by using labels and play order [JC]
N: O'Neill's has each part written twice.
P: Play AA BB AA
Q: "Tenderly"
M: 3/8
L: 1/8
K: G
"^A"|: (B/c/) | dde | c2A  | B2G | {B}AGG | "^fine"G2 H:|
"^B"|: (d/c/) | BGB | d>ef | gag |    fdB |1 c2 :|2 "D.C."Hc2 |]
